X:1
T:Bold Robinson
M:4/4
L:1/4
K:G
 z2 z D| D- G G G| G B B B| A G/2G/2 F E| D3 A| A A A A| A2 G- A| B G G G|\
 G3 B| B A A G| G- F2 F| E E/2E/2 A G| G- F E D| E G F A| G B d c|\
 B3/2 B/2c/2-B/2 A| G3/2- A/2- B B| A- G F E| D2 B2| A- G F E| D3 D|\
E/2-F/2 G F A| G B d c| B2c/2-B/2 A| G3 z|
